dist/img/sprites/company-insurance-2.svg

<svg width="496" height="101" viewBox="0 0 496 101"  xmlns="http://www.w3.org/2000/svg">
<path fill-rule="evenodd" clip-rule="evenodd" d="M55.2096 8.41435C54.2226 5.93882 52.5163 3.81625 50.3108 2.32096C48.1054 0.825662 45.5024 0.0263672 42.838 0.0263672C40.1737 0.0263672 37.5705 0.825662 35.365 2.32096C33.1595 3.81625 31.4532 5.93882 30.4662 8.41435L0.947266 84.5949L17.7715 91.0811L24.1791 73.2879H61.4202L67.8387 91.0811L84.652 84.5949L55.2096 8.41435ZM42.8215 58.5404H29.5352L42.8215 21.847L56.1078 58.5404H42.8215Z" />
<path d="M199.451 0H193.383V91.0815H199.451V0Z" />
<path fill-rule="evenodd" clip-rule="evenodd" d="M379.428 13.629C377.61 13.5599 375.801 13.936 374.159 14.7247V1.21533H365.923V14.6699C364.284 13.8825 362.48 13.5064 360.664 13.5743C352.265 13.5743 347.148 18.68 347.148 30.0966C347.148 40.7136 351.76 46.3014 359.285 46.3014C361.595 46.4106 363.891 45.8839 365.923 44.7784V56.0636H374.159V44.8331C376.194 45.9391 378.495 46.4659 380.807 46.3561C387.795 46.3561 392.944 40.5601 392.944 29.9214C392.944 18.5266 387.817 13.629 379.428 13.629ZM365.923 38.8291C364.572 39.3186 363.141 39.5454 361.705 39.4974C357.389 39.4974 355.615 35.9694 355.615 30.1954C355.615 23.8953 357.531 20.5755 361.312 20.5755C362.903 20.4563 364.497 20.7745 365.923 21.4958V38.8291ZM378.388 39.4974C376.949 39.5444 375.513 39.3176 374.159 38.8291V21.452C375.588 20.7287 377.187 20.4104 378.781 20.5316C382.561 20.5316 384.477 23.6433 384.477 29.9761C384.477 35.7174 382.123 39.4426 378.388 39.4426V39.4974Z" />
<path fill-rule="evenodd" clip-rule="evenodd" d="M281.23 15.5919V31.0842C281.426 33.3737 281.245 35.6795 280.695 37.9102C280.23 39.4287 279.259 40.7427 277.945 41.6355L280.257 46.4782C286.827 44.6047 289.369 41.7232 289.369 32.5525V21.1797C290.813 20.9062 292.281 20.7741 293.75 20.7852C295.191 20.7736 296.63 20.9058 298.043 21.1797V45.8317H306.302V15.5919C302.244 14.2969 298.011 13.6426 293.75 13.6526C289.502 13.6385 285.276 14.2929 281.23 15.5919Z" />
<path fill-rule="evenodd" clip-rule="evenodd" d="M426.751 42.8302C424.759 40.1017 423.793 36.757 424.023 33.3857V24.9384C424.023 20.3695 423.498 18.6822 422.272 17.0278C420.618 14.6721 417.804 13.6532 412.655 13.6532C409.077 13.6312 405.512 14.0582 402.041 14.9241L403.267 20.9721C405.411 20.6347 407.573 20.4334 409.742 20.3695C415.217 20.3695 415.842 21.1803 415.842 25.267V26.79C414.486 26.4187 413.085 26.2308 411.679 26.2313C403.42 26.2313 399.062 30.2522 399.062 36.892C399.062 43.1262 403.705 46.5445 409.402 46.5445C411.474 46.56 413.533 46.1885 415.469 45.449C416.475 45.008 417.433 44.4645 418.329 43.8272C419.17 44.9602 420.276 45.8705 421.549 46.4787L426.751 42.8302ZM411.821 39.9708C408.864 39.9708 407.21 38.8092 407.21 35.7853C407.21 32.7613 409.337 31.567 413.41 31.567C414.233 31.5462 415.054 31.6535 415.842 31.8848V34.076C415.762 35.779 415.91 37.4848 416.28 39.149C414.856 39.6893 413.345 39.9678 411.821 39.9708Z" />
<path fill-rule="evenodd" clip-rule="evenodd" d="M341.014 34.5899C341.014 27.8299 336.863 23.6334 329.085 23.6334C327.299 23.6654 325.525 23.9306 323.806 24.4223V14.167H315.547V44.1879C319.37 45.7569 323.463 46.5644 327.596 46.5654C336.316 46.5654 341.014 42.0404 341.014 34.5899ZM323.806 39.7066V30.6784C324.989 30.3611 326.208 30.1956 327.431 30.1854C331.212 30.1854 332.48 32.0371 332.48 35.0171C332.48 37.9974 331.387 40.2326 327.431 40.2326C326.2 40.2779 324.972 40.0996 323.806 39.7066Z" />
<path fill-rule="evenodd" clip-rule="evenodd" d="M251.929 1.14931C250.548 1.26928 249.214 1.72022 248.042 2.46409C246.873 3.23138 245.901 4.26365 245.205 5.47713C240.364 18.866 235.533 32.2621 230.714 45.6656L239.181 48.7771L242.401 39.4424H261.417L264.702 48.9526L273.256 45.4904L258.249 4.74305C257.666 3.58873 256.756 2.6321 255.632 1.99296C254.511 1.34534 253.22 1.0513 251.929 1.14931ZM245.129 31.5426L251.929 11.9743L258.69 31.5974L245.129 31.5426Z" />
<path d="M230.562 75.9174C230.504 73.8952 230.856 71.8822 231.596 69.9994C232.335 68.1167 233.448 66.4029 234.866 64.9609C236.292 63.5154 238.001 62.3802 239.886 61.6259C241.77 60.8719 243.791 60.5152 245.82 60.5784C250.376 60.5784 254.026 61.8967 256.774 64.5337L254.647 67.6672C253.479 66.6467 252.135 65.8449 250.683 65.3007C249.198 64.7252 247.62 64.4244 246.028 64.4132C244.523 64.3437 243.021 64.6017 241.625 65.1692C240.23 65.7367 238.974 66.6002 237.944 67.7002C235.918 69.9429 234.842 72.8852 234.943 75.9064C234.86 78.9959 235.956 82.0009 238.01 84.3102C239.024 85.4462 240.276 86.3437 241.677 86.9387C243.079 87.5334 244.594 87.8107 246.115 87.7504C247.819 87.7412 249.503 87.3869 251.066 86.7097C252.66 86.0407 254.109 85.0654 255.327 83.8389L257.572 86.8629C256.068 88.4052 254.264 89.6227 252.27 90.4407C250.277 91.2584 248.138 91.6592 245.984 91.6182C243.923 91.6974 241.869 91.3392 239.956 90.5667C238.044 89.7944 236.316 88.6254 234.888 87.1369C233.46 85.6464 232.343 83.8872 231.6 81.9612C230.857 80.0352 230.504 77.9809 230.562 75.9174Z" />
<path d="M267.419 91.0829V73.1252H259.938V69.5972H279.008V73.1252H271.492V91.0829H267.419Z" />
<path d="M284.1 99.5832V69.5952H287.923V71.5017L287.792 73.1232H287.923C288.571 71.8587 289.576 70.8142 290.815 70.1212C292.126 69.396 293.599 69.0187 295.098 69.0255C296.407 68.9745 297.708 69.228 298.901 69.766C300.095 70.304 301.148 71.112 301.976 72.1262C303.762 74.4607 304.668 77.352 304.528 80.289C304.671 83.2567 303.702 86.1712 301.811 88.4625C300.943 89.4625 299.864 90.2572 298.653 90.7895C297.44 91.322 296.124 91.5787 294.803 91.5412C293.467 91.579 292.146 91.2612 290.972 90.62C289.802 89.979 288.821 89.0377 288.13 87.8927H288.055C288.175 88.5062 288.23 89.1305 288.218 89.7552V99.5285L284.1 99.5832ZM288.088 80.4205C288.045 82.3295 288.623 84.201 289.731 85.7562C290.219 86.4775 290.882 87.0635 291.658 87.46C292.434 87.8565 293.297 88.0505 294.167 88.0242C295.006 88.0307 295.834 87.8492 296.592 87.4925C297.35 87.136 298.018 86.6137 298.548 85.9642C299.812 84.3855 300.447 82.3955 300.332 80.3765C300.432 78.3802 299.839 76.4107 298.658 74.7997C298.146 74.1282 297.48 73.5877 296.719 73.2222C295.956 72.8565 295.121 72.6762 294.275 72.696C293.449 72.6857 292.629 72.855 291.873 73.1915C291.115 73.5282 290.442 74.0245 289.894 74.6462C288.591 76.2767 287.945 78.3372 288.088 80.4205Z" />
<path d="M308.894 85.2184C308.849 83.7754 309.314 82.3626 310.21 81.2301C311.123 80.1291 312.342 79.3246 313.715 78.9184C315.034 78.4806 316.39 78.1579 317.768 77.9541C319.079 77.7839 320.398 77.6996 321.721 77.7021H322.817V77.2749C322.817 74.1414 321.251 72.5636 318.106 72.5636C315.929 72.6041 313.82 73.3329 312.081 74.6454L310.418 71.6324C311.481 70.7999 312.692 70.1789 313.988 69.8026C315.427 69.3306 316.933 69.0866 318.446 69.0794C319.587 69.0089 320.731 69.1664 321.809 69.5424C322.89 69.9186 323.883 70.5061 324.734 71.2706C325.504 72.1084 326.095 73.0941 326.47 74.1679C326.848 75.2416 327 76.3806 326.923 77.5159V91.1019H323.08V88.9106L323.2 87.2124H323.122C322.462 88.4936 321.471 89.5754 320.253 90.3459C319.012 91.1649 317.556 91.5959 316.069 91.5841C314.233 91.6276 312.439 91.0094 311.021 89.8419C310.33 89.2904 309.777 88.5851 309.409 87.7824C309.039 86.9794 308.864 86.1014 308.894 85.2184ZM313.015 84.8786C313.012 85.3371 313.11 85.7901 313.3 86.2076C313.487 86.6251 313.765 86.9976 314.108 87.3001C314.924 88.0194 315.992 88.3859 317.078 88.3191C317.891 88.3321 318.697 88.1451 319.422 87.7744C320.148 87.4039 320.773 86.8611 321.239 86.1934C322.289 84.8486 322.857 83.1889 322.85 81.4821V80.6824H321.754C315.927 80.6824 313.015 82.0811 313.015 84.8786Z" />
<path d="M331.614 91.0829L338.952 80.0387L332.03 69.5972H336.751L340.736 76.1709L341.417 77.4419H341.504C341.79 76.9599 342.03 76.5327 342.228 76.1709L346.213 69.5972H350.924L344.011 80.0387L351.352 91.0829H346.686L342.182 83.9062L341.504 82.8107H341.417C341.234 83.1919 341.022 83.5582 340.781 83.9062L336.28 91.0829H331.614Z" />
<path d="M355.262 95.5422C355.95 96.1307 356.821 96.4634 357.726 96.4844C359.45 96.4844 360.749 95.4217 361.624 93.2959L362.72 90.8307L353.641 69.5972H358.274L363.663 83.6542L364.474 86.2399H364.594C364.784 85.3789 365.024 84.5302 365.317 83.6982L370.529 69.5972H374.987L364.889 94.9504C364.364 96.4567 363.393 97.7674 362.107 98.7084C360.884 99.5684 359.418 100.021 357.924 100.001C357.213 100.019 356.508 99.9192 355.83 99.7057C355.294 99.5492 354.782 99.3207 354.309 99.0262L353.793 98.7304L355.262 95.5422Z" />
<path d="M380.097 91.0798V69.5941H388.979C390.832 69.4921 392.669 69.9916 394.215 71.0186C394.853 71.4868 395.364 72.1066 395.704 72.8221C396.042 73.5373 396.197 74.3258 396.154 75.1163C396.164 76.1171 395.881 77.0993 395.344 77.9431C394.791 78.7823 394.002 79.4383 393.077 79.8276C394.268 80.0726 395.336 80.7326 396.089 81.6901C396.937 82.8761 397.298 84.3436 397.092 85.7881C396.89 87.2326 396.137 88.5428 394.993 89.4473C393.299 90.5846 391.28 91.1421 389.244 91.0361L380.097 91.0798ZM384.215 78.6771H388.258C389.254 78.7511 390.242 78.4413 391.018 77.8116C391.335 77.5011 391.581 77.1266 391.743 76.7126C391.903 76.2988 391.973 75.8553 391.948 75.4121C391.948 73.4253 390.675 72.4356 388.125 72.4428H384.215V78.6771ZM384.215 88.1983H388.596C389.762 88.2876 390.923 87.9701 391.883 87.2998C392.239 86.9913 392.521 86.6101 392.716 86.1818C392.912 85.7538 393.014 85.2888 393.014 84.8183C393.014 84.3476 392.912 83.8826 392.716 83.4546C392.521 83.0263 392.239 82.6451 391.883 82.3366C390.92 81.6743 389.762 81.3576 388.596 81.4381H384.215V88.1983Z" />
<path d="M401.453 85.2188C401.408 83.7758 401.874 82.363 402.769 81.2305C403.685 80.1315 404.903 79.3272 406.274 78.9187C407.598 78.481 408.956 78.1583 410.338 77.9545C411.644 77.7838 412.962 77.6995 414.281 77.7025H415.376V77.2753C415.376 74.1415 413.798 72.564 410.655 72.564C408.479 72.606 406.37 73.3345 404.631 74.6455L402.977 71.6325C404.035 70.8 405.244 70.179 406.537 69.8028C407.976 69.331 409.479 69.087 410.996 69.0798C412.136 69.0073 413.28 69.1637 414.358 69.5402C415.439 69.9165 416.432 70.505 417.283 71.271C418.054 72.1072 418.647 73.0927 419.024 74.1667C419.4 75.241 419.552 76.3807 419.472 77.5162V91.1022H415.639V88.911L415.769 87.2128H415.682C415.016 88.5008 414.018 89.5865 412.792 90.3572C411.551 91.176 410.092 91.607 408.606 91.5952C406.775 91.6305 404.991 91.0085 403.58 89.8423C402.892 89.289 402.341 88.5835 401.971 87.781C401.603 86.9785 401.426 86.1013 401.453 85.2188ZM405.574 84.879C405.576 85.3367 405.676 85.7885 405.864 86.2053C406.054 86.6223 406.327 86.9953 406.667 87.3003C407.488 88.0203 408.559 88.3865 409.647 88.3193C410.46 88.3325 411.263 88.1455 411.989 87.7748C412.712 87.4043 413.335 86.8613 413.798 86.1938C414.856 84.8525 415.429 83.1912 415.419 81.4825V80.6828H414.323C408.489 80.6828 405.574 82.0815 405.574 84.879Z" />
<path d="M426.633 91.0829V69.5972H430.751V78.3622H441.617V69.5972H445.735V91.0829H441.617V81.8684H430.751V91.0829H426.633Z" />
<path d="M453.176 91.0829V69.5972H457.294V78.3622H468.16V69.5972H472.278V91.0829H468.16V81.8684H457.294V91.0829H453.176Z" />
<path d="M477.547 91.0804L482.508 83.9479L483.484 82.6332C482.185 82.2657 481.037 81.4989 480.199 80.4417C479.201 79.1114 478.723 77.4604 478.86 75.8024C478.998 74.1444 479.739 72.5944 480.942 71.4464C482.533 70.2097 484.515 69.5839 486.529 69.6824H495.105V91.0804H490.987V83.2687H487.372L482.103 91.0367L477.547 91.0804ZM487.405 80.2994H490.975V72.4434H487.537C484.5 72.4434 482.984 73.7292 482.991 76.3002C482.954 76.8577 483.046 77.4164 483.259 77.9332C483.471 78.4499 483.799 78.9107 484.217 79.2804C485.123 79.9857 486.249 80.3469 487.394 80.2994H487.405Z" />
<path d="M156.551 68.7192C151.58 72.556 145.457 74.5953 139.179 74.5042C124.042 74.5042 108.707 64.5557 108.707 45.5462C108.707 26.5368 124.042 16.5772 139.179 16.5772C145.456 16.4915 151.578 18.5301 156.551 22.3622L162.564 6.6725C155.496 2.31797 147.36 0.00830518 139.058 0C111.993 0 91.127 20.3681 91.127 45.5462C91.127 70.7243 111.938 91.0815 139.058 91.0815C147.375 91.066 155.524 88.7407 162.597 84.365L156.584 68.6973L156.551 68.7192Z" />
</svg>

<svg width="496" height="101" viewBox="0 0 496 101" xmlns="http://www.w3.org/2000/svg"><path fill-rule="evenodd" clip-rule="evenodd" d="M55.21 8.414A13.323 13.323 0 0042.838.026a13.317 13.317 0 00-12.372 8.388L.947 84.594l16.825 6.487 6.407-17.793H61.42l6.42 17.792 16.813-6.486L55.21 8.415zM42.82 58.54H29.535l13.287-36.693L56.108 58.54H42.822z"/><path d="M199.451 0h-6.068v91.082h6.068V0z"/><path fill-rule="evenodd" clip-rule="evenodd" d="M379.428 13.629a11.19 11.19 0 00-5.269 1.096V1.215h-8.236V14.67a11.177 11.177 0 00-5.259-1.096c-8.399 0-13.516 5.106-13.516 16.523 0 10.617 4.612 16.204 12.137 16.204 2.31.11 4.606-.417 6.638-1.523v11.286h8.236v-11.23a12.668 12.668 0 006.648 1.522c6.988 0 12.137-5.796 12.137-16.435 0-11.394-5.127-16.292-13.516-16.292zm-13.505 25.2c-1.351.49-2.782.716-4.218.668-4.316 0-6.09-3.528-6.09-9.302 0-6.3 1.916-9.62 5.697-9.62a8.764 8.764 0 014.611.92V38.83zm12.465.668a11.371 11.371 0 01-4.229-.668V21.452a8.765 8.765 0 014.622-.92c3.78 0 5.696 3.111 5.696 9.444 0 5.741-2.354 9.467-6.089 9.467v.054zM281.23 15.592v15.492c.196 2.29.015 4.595-.535 6.826a6.974 6.974 0 01-2.75 3.726l2.312 4.842c6.57-1.873 9.112-4.755 9.112-13.925V21.18a22.629 22.629 0 014.381-.395 21.65 21.65 0 014.293.395v24.652h8.259v-30.24a40.962 40.962 0 00-12.552-1.94 40.522 40.522 0 00-12.52 1.94zM426.751 42.83a14.36 14.36 0 01-2.728-9.444v-8.448c0-4.569-.525-6.256-1.751-7.91-1.654-2.356-4.468-3.375-9.617-3.375a42.76 42.76 0 00-10.614 1.271l1.226 6.048a51.378 51.378 0 016.475-.603c5.475 0 6.1.811 6.1 4.898v1.523a15.747 15.747 0 00-4.163-.559c-8.259 0-12.617 4.021-12.617 10.661 0 6.234 4.643 9.652 10.34 9.652a16.659 16.659 0 006.067-1.095 16.056 16.056 0 002.86-1.622 8.66 8.66 0 003.22 2.652l5.202-3.649zm-14.93-2.86c-2.957 0-4.611-1.16-4.611-4.185 0-3.024 2.127-4.218 6.2-4.218a7.926 7.926 0 012.432.318v2.191c-.08 1.703.068 3.409.438 5.073-1.424.54-2.935.819-4.459.822zm-70.807-5.38c0-6.76-4.151-10.957-11.929-10.957a20.53 20.53 0 00-5.279.79V14.166h-8.259v30.02a31.755 31.755 0 0012.049 2.378c8.72 0 13.418-4.525 13.418-11.975zm-17.208 5.117v-9.029a14.464 14.464 0 013.625-.493c3.781 0 5.049 1.852 5.049 4.832 0 2.98-1.093 5.216-5.049 5.216a10.177 10.177 0 01-3.625-.526zM251.929 1.15a8.653 8.653 0 00-3.887 1.314 8.902 8.902 0 00-2.837 3.013 23710.448 23710.448 0 00-14.491 40.189l8.467 3.111 3.22-9.335h19.016l3.285 9.51 8.554-3.462-15.007-40.747a6.57 6.57 0 00-2.617-2.75 6.43 6.43 0 00-3.703-.844zm-6.8 30.393l6.8-19.569 6.761 19.623-13.561-.054z"/><path d="M230.562 75.917a15.003 15.003 0 014.304-10.956 14.748 14.748 0 0110.954-4.383c4.556 0 8.206 1.319 10.954 3.956l-2.127 3.133a12.916 12.916 0 00-3.964-2.366 13.14 13.14 0 00-4.655-.888 10.415 10.415 0 00-8.084 3.287 11.66 11.66 0 00-3.001 8.206 12.153 12.153 0 003.067 8.404 10.326 10.326 0 008.105 3.44 12.625 12.625 0 004.951-1.04 13.211 13.211 0 004.261-2.871l2.245 3.024a15.759 15.759 0 01-11.588 4.755 14.6 14.6 0 01-11.096-4.481 15.592 15.592 0 01-4.326-11.22zm36.857 15.166V73.125h-7.481v-3.528h19.07v3.528h-7.516v17.958h-4.073zm16.681 8.5V69.595h3.823v1.907l-.131 1.621h.131a7.2 7.2 0 012.892-3.002 8.762 8.762 0 014.283-1.096 8.448 8.448 0 016.878 3.101 12.46 12.46 0 012.552 8.163 11.939 11.939 0 01-2.717 8.174 8.952 8.952 0 01-7.008 3.078 7.544 7.544 0 01-6.673-3.648h-.075a8.82 8.82 0 01.163 1.862v9.773l-4.118.055zm3.988-19.162a8.854 8.854 0 001.643 5.335 5.162 5.162 0 004.436 2.268 5.59 5.59 0 004.381-2.06 8.194 8.194 0 001.784-5.588 8.699 8.699 0 00-1.674-5.576 5.353 5.353 0 00-4.383-2.104 5.734 5.734 0 00-4.381 1.95 8.337 8.337 0 00-1.806 5.775zm20.806 4.797a6.12 6.12 0 011.316-3.988 7.208 7.208 0 013.505-2.312 24.022 24.022 0 014.053-.964c1.311-.17 2.63-.254 3.953-.252h1.096v-.427c0-3.134-1.566-4.711-4.711-4.711a10.32 10.32 0 00-6.025 2.081l-1.663-3.013a10.568 10.568 0 013.57-1.83 14.534 14.534 0 014.458-.723 8.604 8.604 0 016.288 2.192 8.35 8.35 0 011.736 2.897 8.373 8.373 0 01.453 3.348v13.586h-3.843V88.91l.12-1.699h-.078a8.096 8.096 0 01-2.869 3.134 7.487 7.487 0 01-4.184 1.238 7.66 7.66 0 01-5.048-1.742 5.665 5.665 0 01-2.127-4.623zm4.121-.34a3.212 3.212 0 001.093 2.421 4.11 4.11 0 002.97 1.02 4.977 4.977 0 004.161-2.126 7.606 7.606 0 001.611-4.71v-.8h-1.096c-5.827 0-8.739 1.398-8.739 4.196zm18.599 6.205l7.338-11.044-6.922-10.442h4.721l3.985 6.574.681 1.27h.087c.286-.481.526-.908.724-1.27l3.985-6.574h4.711l-6.913 10.442 7.341 11.044h-4.666l-4.504-7.177-.678-1.095h-.087a8.016 8.016 0 01-.636 1.095l-4.501 7.177h-4.666zm23.648 4.459a3.932 3.932 0 002.464.942c1.724 0 3.023-1.062 3.898-3.188l1.096-2.465-9.079-21.234h4.633l5.389 14.057.811 2.586h.12c.19-.861.43-1.71.723-2.542l5.212-14.1h4.458L364.889 94.95a7.865 7.865 0 01-2.782 3.758 7.112 7.112 0 01-4.183 1.293 6.419 6.419 0 01-2.094-.295 6.127 6.127 0 01-1.521-.68l-.516-.296 1.469-3.188zm24.835-4.462V69.594h8.882a8.608 8.608 0 015.236 1.425 4.764 4.764 0 011.939 4.098c.01 1-.273 1.982-.81 2.826a5.072 5.072 0 01-2.267 1.885 5.155 5.155 0 013.012 1.862 5.67 5.67 0 011.003 4.098 5.667 5.667 0 01-2.099 3.66 9.438 9.438 0 01-5.749 1.588l-9.147.044zm4.118-12.403h4.043a3.92 3.92 0 002.76-.865 3.12 3.12 0 00.93-2.4c0-1.987-1.273-2.976-3.823-2.97h-3.91v6.235zm0 9.521h4.381a5.065 5.065 0 003.287-.898c.356-.309.638-.69.833-1.118a3.275 3.275 0 000-2.727 3.266 3.266 0 00-.833-1.118 5.17 5.17 0 00-3.287-.899h-4.381v6.76zm17.238-2.979a6.125 6.125 0 011.316-3.988 7.261 7.261 0 013.505-2.312 24.178 24.178 0 014.064-.965 29.908 29.908 0 013.943-.251h1.095v-.428c0-3.134-1.578-4.711-4.721-4.711a10.34 10.34 0 00-6.024 2.082l-1.654-3.014a10.501 10.501 0 013.56-1.83 14.527 14.527 0 014.459-.722 8.594 8.594 0 016.287 2.191 8.355 8.355 0 011.741 2.896 8.36 8.36 0 01.448 3.35v13.585h-3.833v-2.191l.13-1.698h-.087a8.118 8.118 0 01-2.89 3.144 7.497 7.497 0 01-4.186 1.238 7.659 7.659 0 01-5.026-1.753 5.717 5.717 0 01-1.609-2.061 5.727 5.727 0 01-.518-2.562zm4.121-.34a3.262 3.262 0 001.093 2.421 4.133 4.133 0 002.98 1.02 4.948 4.948 0 004.151-2.126 7.538 7.538 0 001.621-4.712v-.8h-1.096c-5.834 0-8.749 1.4-8.749 4.197zm21.059 6.204V69.597h4.118v8.765h10.866v-8.765h4.118v21.486h-4.118v-9.215h-10.866v9.215h-4.118zm26.543 0V69.597h4.118v8.765h10.866v-8.765h4.118v21.486h-4.118v-9.215h-10.866v9.215h-4.118zm24.371-.003l4.961-7.132.976-1.315a6.421 6.421 0 01-3.285-2.191 6.8 6.8 0 01-1.339-4.64 6.801 6.801 0 012.082-4.356 8.432 8.432 0 015.587-1.764h8.576V91.08h-4.118v-7.81h-3.615l-5.269 7.768-4.556.043zm9.858-10.78h3.57v-7.857h-3.438c-3.037 0-4.553 1.286-4.546 3.857a3.651 3.651 0 001.226 2.98 4.846 4.846 0 003.177 1.02h.011zM156.551 68.72a27.771 27.771 0 01-17.372 5.784c-15.137 0-30.472-9.948-30.472-28.958 0-19.01 15.335-28.969 30.472-28.969a27.838 27.838 0 0117.372 5.785l6.013-15.69A44.897 44.897 0 00139.058 0c-27.065 0-47.931 20.368-47.931 45.546s20.811 45.536 47.931 45.536a44.9 44.9 0 0023.539-6.717l-6.013-15.668-.033.022z"/></svg>
